X: 30304
T: Old Man Dillon
R: jig
M: 6/8
K: Dmajor
|:fef d2A|FAA A3|ABd edB|def e3|
fef d2A|FAA A3|ABd edB|ded d3:|
|:fef a2f|a2b afe|d2f edB|def e3|
fef a2f|a2b afe|d2f edB|ded d3:|

